src/icons/axis-x.svg

<svg width="19" height="10" viewBox="0 0 19 10" fill="none" xmlns="http://www.w3.org/2000/svg">
<path fill-rule="evenodd" clip-rule="evenodd" d="M5.13114 0.312406C5.48225 0.663519 5.48225 1.23278 5.13114 1.5839L3.06975 3.64528H15.5109L13.4496 1.58402C13.0985 1.2329 13.0985 0.66364 13.4496 0.312527C13.8007 -0.0385848 14.37 -0.0385848 14.7211 0.312527L18.3174 3.90884C18.6685 4.25996 18.6685 4.82922 18.3174 5.18033L14.7211 8.77665C14.37 9.12776 13.8007 9.12776 13.4496 8.77665C13.0985 8.42554 13.0985 7.85627 13.4496 7.50516L15.5113 5.44344H3.06954L5.13114 7.50504C5.48225 7.85615 5.48225 8.42542 5.13114 8.77653C4.78003 9.12764 4.21076 9.12764 3.85965 8.77653L0.263334 5.18021C-0.087778 4.8291 -0.087778 4.25983 0.263334 3.90872L3.85965 0.312406C4.21076 -0.0387058 4.78003 -0.0387058 5.13114 0.312406Z" fill="white"/>
</svg>

<svg xmlns="http://www.w3.org/2000/svg" width="19" height="10" fill="none"><path fill="#fff" fill-rule="evenodd" d="M5.131.312a.9.9 0 0 1 0 1.272L3.07 3.645h12.44l-2.06-2.061A.9.9 0 0 1 14.72.313l3.596 3.596a.9.9 0 0 1 0 1.271l-3.596 3.597a.9.9 0 0 1-1.271-1.272l2.061-2.062H3.07L5.13 7.505A.9.9 0 0 1 3.86 8.777L.263 5.18a.9.9 0 0 1 0-1.271L3.86.312a.9.9 0 0 1 1.271 0" clip-rule="evenodd"/></svg>
